svgs/light/mug-hot.svg

<svg xmlns="http://www.w3.org/2000/svg" viewBox="0 0 512 512"><!-- Font Awesome Pro 6.0.0-alpha2 by @fontawesome - https://fontawesome.com License - https://fontawesome.com/license (Commercial License) --><path d="M400 192H32C14.328 192 0 206.326 0 224V416C0 469.02 42.98 512 96 512H288C341.02 512 384 469.02 384 416H400C461.75 416 512 365.75 512 304S461.75 192 400 192ZM352 416C352 451.289 323.291 480 288 480H96C60.711 480 32 451.289 32 416V224H352V416ZM400 384H384V224H400C444.125 224 480 259.875 480 304S444.125 384 400 384ZM104.844 94.312C119.125 101.453 128 115.812 128 131.781V144C128 152.844 135.156 160 144 160S160 152.844 160 144V131.781C160 103.625 144.344 78.297 119.156 65.688C104.875 58.547 96 44.188 96 28.219V16C96 7.156 88.844 0 80 0S64 7.156 64 16V28.219C64 56.375 79.656 81.703 104.844 94.312ZM232.844 94.312C247.125 101.453 256 115.812 256 131.781V144C256 152.844 263.156 160 272 160S288 152.844 288 144V131.781C288 103.625 272.344 78.297 247.156 65.688C232.875 58.547 224 44.188 224 28.219V16C224 7.156 216.844 0 208 0S192 7.156 192 16V28.219C192 56.375 207.656 81.703 232.844 94.312Z"/></svg>

<svg xmlns="http://www.w3.org/2000/svg" viewBox="0 0 512 512"><!--! Font Awesome Pro 6.3.0 by @fontawesome - https://fontawesome.com License - https://fontawesome.com/license (Commercial License) Copyright 2023 Fonticons, Inc. --><path d="M400 192H32C14.33 192 0 206.3 0 224v192c0 53.02 42.98 96 96 96h192c53.02 0 96-42.98 96-96h16c61.75 0 112-50.25 112-112S461.8 192 400 192zM352 416c0 35.29-28.71 64-64 64H96c-35.29 0-64-28.71-64-64V224h320V416zM400 384H384V224h16C444.1 224 480 259.9 480 304S444.1 384 400 384zM104.8 94.31C119.1 101.5 128 115.8 128 131.8V144C128 152.8 135.2 160 144 160S160 152.8 160 144V131.8c0-28.16-15.66-53.48-40.84-66.09C104.9 58.55 96 44.19 96 28.22V16C96 7.156 88.84 0 80 0S64 7.156 64 16v12.22C64 56.38 79.66 81.7 104.8 94.31zM232.8 94.31C247.1 101.5 256 115.8 256 131.8V144C256 152.8 263.2 160 272 160S288 152.8 288 144V131.8c0-28.16-15.66-53.48-40.84-66.09C232.9 58.55 224 44.19 224 28.22V16C224 7.156 216.8 0 208 0S192 7.156 192 16v12.22C192 56.38 207.7 81.7 232.8 94.31z"/></svg>
